briefcase-download-outline.svg

<svg fill="currentColor" viewBox="0 0 24 24"><path d="m12 18-5-5h3V9h4v4h3zM10 2h4a2 2 0 0 1 2 2v2h4a2 2 0 0 1 2 2v11a2 2 0 0 1-2 2H4a2 2 0 0 1-2-2V8c0-1.11.89-2 2-2h4V4c0-1.11.89-2 2-2m4 4V4h-4v2zM4 8v11h16V8z"/></svg>

<svg  viewBox="0 0 24 24" fill="currentColor"><path  d="M12,18L7,13H10V9H14V13H17L12,18M10,2H14A2,2 0 0,1 16,4V6H20A2,2 0 0,1 22,8V19A2,2 0 0,1 20,21H4C2.89,21 2,20.1 2,19V8C2,6.89 2.89,6 4,6H8V4C8,2.89 8.89,2 10,2M14,6V4H10V6H14M4,8V19H20V8H4Z"/></svg>
